-----BEGIN PGP SIGNATURE-----

iQIzBAABCAAdFiEEVUBlfIKlVyyyox46AQTC5tJkf3oFAmqJlf4ACgkQAQTC5tJk
f3owMg/+No0MWydrwz9o2X4otABf9Tw3nB1VUqke6g01X2T/5lj/qWiKMW76Jv14
2+7tvkelRTSTIbDCOn9xpmsAU/fzQ1YohqMVmo7TEkkuDHcih84YxlXvwIFfc4ee
j5Dt6Mvf4Mm5S8D9L7e2LDmI0oJ76mTalUgLV7A4BeGXmKQrwvrlJD8d507K7afT
2HzbFEc+GXcWN2/6iEDB/LiYsJC0CWk+Sn748rpr6FyAv+lfxkBztXiFJLVUtG1I
rViv6ARFkqRffA/bgqxvmL95A33YlBemFKMS2CwcA6Lkza0S9bSFGsD6L1F6SYg1
XDckvdtaNoES1w69XMJkcwtkogzMIcgNAi8NrGOE4+DEZojTJ5wmIpOOl+C9utXZ
G20dhmfPdcPFlz8ZU8G9xkwOEjwKkC+g4CczCMFzCG0189+HYzfClvvEcrJV+7Zn
rzYBoU3J8NQKoiQN8Eqc3WsWOWmJ8VwsMNZ/8CXYBezGNVECv5qvbo9vCRY25daW
Aia658JLvYj9n9Acr8RGWX4ybMxcfHuVh1svnwZC2aY8t7DIvkPLp1z67oooCva/
dQ7uXYljrB3tJCE6VIsDPkoUczKwhvyOr36K0UYStHvu8BWLoTpE2cocfv4A8m/r
jkwnkeGZPhH2zy3wPn7cV405MjcvxtvcGg9P4TVTUNKtRIo8wyA=
=rj0d
-----END PGP SIGNATURE-----
